src/home/img/benefit-i18n.svg

<svg height="65" viewBox="0 0 76 65" width="76" xmlns="http://www.w3.org/2000/svg" xmlns:xlink="http://www.w3.org/1999/xlink"><linearGradient id="a" x1="50%" x2="50%" y1="0%" y2="100%"><stop offset="0" stop-color="#3f6abc"/><stop offset="1" stop-color="#1851be"/></linearGradient><filter id="b" height="109.3%" width="109.3%" x="-4.7%" y="-4.7%"><feGaussianBlur in="SourceGraphic" stdDeviation=".65"/></filter><radialGradient id="c" cx="59.794%" cy="0%" gradientTransform="matrix(0 .98387 -1 0 .598 -.588)" r="101.639%"><stop offset="0" stop-color="#fff"/><stop offset="1" stop-color="#aec3eb"/></radialGradient><filter id="d" height="106.3%" width="106.4%" x="-3.2%" y="-3.1%"><feGaussianBlur in="SourceGraphic" stdDeviation=".65"/></filter><mask id="e" fill="#fff"><path d="m.5 13.84c0-7.367 5.973-13.34 13.34-13.34h48.32c7.367 0 13.34 5.973 13.34 13.34v48.32c0 7.367-5.973 13.34-13.34 13.34h-48.32c-7.367 0-13.34-5.973-13.34-13.34z" fill="#fff" fill-rule="evenodd"/></mask><mask id="f" fill="#fff"><path d="m.5 13.84c0-7.367 5.973-13.34 13.34-13.34h48.32c7.367 0 13.34 5.973 13.34 13.34v48.32c0 7.367-5.973 13.34-13.34 13.34h-48.32c-7.367 0-13.34-5.973-13.34-13.34z" fill="#fff" fill-rule="evenodd"/></mask><g fill="none" fill-rule="evenodd" transform="translate(-6 1)"><path d="m.5 13.84c0-7.367 5.973-13.34 13.34-13.34h48.32c7.367 0 13.34 5.973 13.34 13.34v48.32c0 7.367-5.973 13.34-13.34 13.34h-48.32c-7.367 0-13.34-5.973-13.34-13.34z" mask="url(#e)"/><path d="m.5 13.84c0-7.367 5.973-13.34 13.34-13.34h48.32c7.367 0 13.34 5.973 13.34 13.34v48.32c0 7.367-5.973 13.34-13.34 13.34h-48.32c-7.367 0-13.34-5.973-13.34-13.34z"/><path d="m.5 13.84c0-7.367 5.973-13.34 13.34-13.34h48.32c7.367 0 13.34 5.973 13.34 13.34v48.32c0 7.367-5.973 13.34-13.34 13.34h-48.32c-7.367 0-13.34-5.973-13.34-13.34z"/><g fill-rule="nonzero"><rect height="60" rx="30" style="stroke:#fff;stroke-opacity:.01;stroke-width:1.68;fill:url(#a);filter:url(#b);mask:url(#f)" width="60" x="7" y="3"/><rect fill="url(#a)" height="60" mask="url(#f)" rx="30" stroke="#fff" stroke-opacity=".01" stroke-width="1.68" width="60" x="7" y="3"/><g fill="url(#c)" transform="translate(20)"><path d="m61 38.0512624c-3.1836361 13.7262429-15.4459307 23.9487376-30.0981329 23.9487376-17.0707687 0-30.9018671-13.8749928-30.9018671-30.999984-.01109317-7.1551523 2.45538361-14.0920603 6.97787001-19.6249899v5.7137471c.00030859 1.2450379.3712843 2.4616117 1.06536549 3.4937482 1.46036066 2.1737488 3.5362658 5.2587473 4.4446301 6.5962466.6438441.9515104 1.3993819 1.8219216 2.250351 2.5924986l.0996833.09c1.1879191 1.0785138 2.514242 1.992863 3.9437214 2.7187486 1.7444581.8812495 4.291367 2.2699988 6.0819286 3.2637483 1.2688574.704051 2.0548703 2.0453795 2.0509844 3.4999982v3.9999979c-.0001707 1.060931.4198101 2.0784715 1.1675409 2.8287486 1.8690623 1.874999 3.030373 4.8287475 2.8197919 6.4062467v3.6337481c.0000662.7503713.3202381 1.4648418.8796515 1.9629609s1.3045813.7322603 2.0473001.6432877c.2180572-.0262499.4348685-.0549999.6516797-.0874999 1.0456579-.1601191 1.891043-.9385459 2.1394533-1.969999l1.7581645-7.2037463c.2492084-.6862496.4062096-1.4012493.5943619-2.1087489.1369517-.5069472.4047109-.9687145.7762838-1.3387493.4136858-.4162498.9233168-.9249995 1.409273-1.4099993 1.0953205-1.0913326 1.7107653-2.5763319 1.7095689-4.1249978.0013441-1.0125462-.3990127-1.9840103-1.112715-2.6999987l-1.708323-1.7087491c-.7487167-.7482727-1.762935-1.1677474-2.8197919-1.1662494h-8.3185732c-1.1725251-.5887497-2.6764972-3.9999979-3.9873328-3.9999979-1.3111332.0000677-2.6042441-.3063685-3.7767519-.8949995l-1.380614-.6924997c-.5313971-.2749134-.8484567-.8409638-.8061664-1.439259.0422902-.5982953.435799-1.1137998 1.0005489-1.3107396l3.8839114-1.2987493c.6688889-.2243472 1.4061597-.0774704 1.9388406.3862498l1.1563265 1.0074995c.1804369.159646.4123416.2484403.6529258.2499999h.7027674c.3454422-.000185.6661644-.1797701.8476486-.4746319.1814842-.2948619.1978565-.6629628.0432711-.9728674l-1.9425787-3.898748c-.1927045-.388902-.1131545-.8581215.1968745-1.1612494l1.2360732-1.2062494c.1844511-.1855146.4341154-.290994.6952912-.2937498h1.1214373c.2644562.0002086.5181568-.1050114.7052595-.2924999l.9968333-.9999994c.3889796-.3904711.3889796-1.0232783 0-1.4137493l-.5843935-.5862497c-.3889796-.390471-.3889796-1.0232783 0-1.4137493l1.2871609-1.2937493.5843934-.5849997c.3739835-.3750857.5840924-.8838625.5840924-1.4143743s-.2101089-1.03928858-.5840924-1.41437426l-3.0403413-3.04999842c-.313485-.31512937-.747075-.47955155-1.1899696-.45124977-.3152485.02124999-.629251.04749998-.9444995.08124996-.7888694.08011815-1.3895033.74582965-1.3905823 1.5412492.0104056.90823247-.5779473 1.71437642-1.4441621 1.97874898-.4802852.13822355-.9947996.09048984-1.4416701-.13374993-.7303228-.36657667-1.4022304-.84009098-1.9936664-1.40499927l-5.0564365-4.82999751c4.3167844-2.18792786 9.0868084-3.32448188 13.9232679-3.31753028 12.9376491 0 24.0124661 7.97002788 28.6178356 19.283772l-4.5492976.3937498c-1.1919308.1032698-2.3536803.4315268-3.4241221.9674995-.4654493.2335326-.8622512.5846372-1.1513424 1.0187495l-2.4409953 3.6724981c-.6693608 1.0075369-.6693608 2.3199614 0 3.3274983l2.2428747 3.3749983c.3220126.4862236.7784359.8676397 1.3133278 1.0974994l2.5568772 1.2624993z" filter="url(#d)"/><path d="m61 38.0512624c-3.1836361 13.7262429-15.4459307 23.9487376-30.0981329 23.9487376-17.0707687 0-30.9018671-13.8749928-30.9018671-30.999984-.01109317-7.1551523 2.45538361-14.0920603 6.97787001-19.6249899v5.7137471c.00030859 1.2450379.3712843 2.4616117 1.06536549 3.4937482 1.46036066 2.1737488 3.5362658 5.2587473 4.4446301 6.5962466.6438441.9515104 1.3993819 1.8219216 2.250351 2.5924986l.0996833.09c1.1879191 1.0785138 2.514242 1.992863 3.9437214 2.7187486 1.7444581.8812495 4.291367 2.2699988 6.0819286 3.2637483 1.2688574.704051 2.0548703 2.0453795 2.0509844 3.4999982v3.9999979c-.0001707 1.060931.4198101 2.0784715 1.1675409 2.8287486 1.8690623 1.874999 3.030373 4.8287475 2.8197919 6.4062467v3.6337481c.0000662.7503713.3202381 1.4648418.8796515 1.9629609s1.3045813.7322603 2.0473001.6432877c.2180572-.0262499.4348685-.0549999.6516797-.0874999 1.0456579-.1601191 1.891043-.9385459 2.1394533-1.969999l1.7581645-7.2037463c.2492084-.6862496.4062096-1.4012493.5943619-2.1087489.1369517-.5069472.4047109-.9687145.7762838-1.3387493.4136858-.4162498.9233168-.9249995 1.409273-1.4099993 1.0953205-1.0913326 1.7107653-2.5763319 1.7095689-4.1249978.0013441-1.0125462-.3990127-1.9840103-1.112715-2.6999987l-1.708323-1.7087491c-.7487167-.7482727-1.762935-1.1677474-2.8197919-1.1662494h-8.3185732c-1.1725251-.5887497-2.6764972-3.9999979-3.9873328-3.9999979-1.3111332.0000677-2.6042441-.3063685-3.7767519-.8949995l-1.380614-.6924997c-.5313971-.2749134-.8484567-.8409638-.8061664-1.439259.0422902-.5982953.435799-1.1137998 1.0005489-1.3107396l3.8839114-1.2987493c.6688889-.2243472 1.4061597-.0774704 1.9388406.3862498l1.1563265 1.0074995c.1804369.159646.4123416.2484403.6529258.2499999h.7027674c.3454422-.000185.6661644-.1797701.8476486-.4746319.1814842-.2948619.1978565-.6629628.0432711-.9728674l-1.9425787-3.898748c-.1927045-.388902-.1131545-.8581215.1968745-1.1612494l1.2360732-1.2062494c.1844511-.1855146.4341154-.290994.6952912-.2937498h1.1214373c.2644562.0002086.5181568-.1050114.7052595-.2924999l.9968333-.9999994c.3889796-.3904711.3889796-1.0232783 0-1.4137493l-.5843935-.5862497c-.3889796-.390471-.3889796-1.0232783 0-1.4137493l1.2871609-1.2937493.5843934-.5849997c.3739835-.3750857.5840924-.8838625.5840924-1.4143743s-.2101089-1.03928858-.5840924-1.41437426l-3.0403413-3.04999842c-.313485-.31512937-.747075-.47955155-1.1899696-.45124977-.3152485.02124999-.629251.04749998-.9444995.08124996-.7888694.08011815-1.3895033.74582965-1.3905823 1.5412492.0104056.90823247-.5779473 1.71437642-1.4441621 1.97874898-.4802852.13822355-.9947996.09048984-1.4416701-.13374993-.7303228-.36657667-1.4022304-.84009098-1.9936664-1.40499927l-5.0564365-4.82999751c4.3167844-2.18792786 9.0868084-3.32448188 13.9232679-3.31753028 12.9376491 0 24.0124661 7.97002788 28.6178356 19.283772l-4.5492976.3937498c-1.1919308.1032698-2.3536803.4315268-3.4241221.9674995-.4654493.2335326-.8622512.5846372-1.1513424 1.0187495l-2.4409953 3.6724981c-.6693608 1.0075369-.6693608 2.3199614 0 3.3274983l2.2428747 3.3749983c.3220126.4862236.7784359.8676397 1.3133278 1.0974994l2.5568772 1.2624993z"/></g></g></g></svg>

<svg xmlns="http://www.w3.org/2000/svg" xmlns:xlink="http://www.w3.org/1999/xlink" width="76" height="65" viewBox="0 0 76 65">
  <defs>
    <path id="benefit-i18n-a" d="M0.5,13.84 C0.5,6.473 6.473,0.5 13.84,0.5 L62.16,0.5 C69.527,0.5 75.5,6.473 75.5,13.84 L75.5,62.16 C75.5,69.527 69.527,75.5 62.16,75.5 L13.84,75.5 C6.473,75.5 0.5,69.527 0.5,62.16 L0.5,13.84 Z"/>
    <path id="benefit-i18n-c" d="M0.5,13.84 C0.5,6.473 6.473,0.5 13.84,0.5 L62.16,0.5 C69.527,0.5 75.5,6.473 75.5,13.84 L75.5,62.16 C75.5,69.527 69.527,75.5 62.16,75.5 L13.84,75.5 C6.473,75.5 0.5,69.527 0.5,62.16 L0.5,13.84 Z"/>
    <linearGradient id="benefit-i18n-d" x1="50%" x2="50%" y1="0%" y2="100%">
      <stop offset="0%" stop-color="#3F6ABC"/>
      <stop offset="100%" stop-color="#1851BE"/>
    </linearGradient>
    <filter id="benefit-i18n-e" width="109.3%" height="109.3%" x="-4.7%" y="-4.7%" filterUnits="objectBoundingBox">
      <feGaussianBlur in="SourceGraphic" stdDeviation=".65"/>
    </filter>
    <radialGradient id="benefit-i18n-g" cx="59.794%" cy="0%" r="101.639%" fx="59.794%" fy="0%" gradientTransform="matrix(0 .98387 -1 0 .598 -.588)">
      <stop offset="0%" stop-color="#FFF"/>
      <stop offset="100%" stop-color="#AEC3EB"/>
    </radialGradient>
    <filter id="benefit-i18n-h" width="106.4%" height="106.3%" x="-3.2%" y="-3.1%" filterUnits="objectBoundingBox">
      <feGaussianBlur in="SourceGraphic" stdDeviation=".65"/>
    </filter>
  </defs>
  <g fill="none" fill-rule="evenodd" transform="translate(-6 1)">
    <mask id="benefit-i18n-b" fill="#fff">
      <use xlink:href="#benefit-i18n-a"/>
    </mask>
    <path d="M0.5,13.84 C0.5,6.473 6.473,0.5 13.84,0.5 L62.16,0.5 C69.527,0.5 75.5,6.473 75.5,13.84 L75.5,62.16 C75.5,69.527 69.527,75.5 62.16,75.5 L13.84,75.5 C6.473,75.5 0.5,69.527 0.5,62.16 L0.5,13.84 Z" mask="url(#benefit-i18n-b)"/>
    <path d="M0.5,13.84 C0.5,6.473 6.473,0.5 13.84,0.5 L62.16,0.5 C69.527,0.5 75.5,6.473 75.5,13.84 L75.5,62.16 C75.5,69.527 69.527,75.5 62.16,75.5 L13.84,75.5 C6.473,75.5 0.5,69.527 0.5,62.16 L0.5,13.84 Z"/>
    <path d="M0.5,13.84 C0.5,6.473 6.473,0.5 13.84,0.5 L62.16,0.5 C69.527,0.5 75.5,6.473 75.5,13.84 L75.5,62.16 C75.5,69.527 69.527,75.5 62.16,75.5 L13.84,75.5 C6.473,75.5 0.5,69.527 0.5,62.16 L0.5,13.84 Z"/>
    <mask id="benefit-i18n-f" fill="#fff">
      <use xlink:href="#benefit-i18n-c"/>
    </mask>
    <rect width="60" height="60" x="7" y="3" fill="url(#benefit-i18n-d)" fill-rule="nonzero" stroke="#FFF" stroke-opacity=".01" stroke-width="1.68" filter="url(#benefit-i18n-e)" mask="url(#benefit-i18n-f)" rx="30"/>
    <rect width="60" height="60" x="7" y="3" fill="url(#benefit-i18n-d)" fill-rule="nonzero" stroke="#FFF" stroke-opacity=".01" stroke-width="1.68" mask="url(#benefit-i18n-f)" rx="30"/>
    <g fill="url(#benefit-i18n-g)" fill-rule="nonzero" transform="translate(20)">
      <path d="M61,38.0512624 C57.8163639,51.7775053 45.5540693,62 30.9018671,62 C13.8310984,62 0,48.1250072 0,31.000016 C-0.0110931741,23.8448637 2.45538361,16.9079557 6.97787001,11.3750261 L6.97787001,17.0887732 C6.9781786,18.3338111 7.34915431,19.5503849 8.0432355,20.5825214 C9.50359616,22.7562702 11.5795013,25.8412687 12.4878656,27.178768 C13.1317097,28.1302784 13.8872475,29.0006896 14.7382166,29.7712666 L14.8378999,29.8612666 C16.025819,30.9397804 17.3521419,31.8541296 18.7816213,32.5800152 C20.5260794,33.4612647 23.0729883,34.850014 24.8635499,35.8437635 C26.1324073,36.5478145 26.9184202,37.889143 26.9145343,39.3437617 L26.9145343,43.3437596 C26.9143636,44.4046906 27.3343444,45.4222311 28.0820752,46.1725082 C29.9511375,48.0475072 31.1124482,51.0012557 30.9018671,52.5787549 L30.9018671,56.212503 C30.9019333,56.9628743 31.2221052,57.6773448 31.7815186,58.1754639 C32.340932,58.673583 33.0860999,58.9077242 33.8288187,58.8187516 C34.0468759,58.7925017 34.2636872,58.7637517 34.4804984,58.7312517 C35.5261563,58.5711326 36.3715414,57.7927058 36.6199517,56.7612527 L38.3781162,49.5575064 C38.6273246,48.8712568 38.7843258,48.1562571 38.9724781,47.4487575 C39.1094298,46.9418103 39.377189,46.480043 39.7487619,46.1100082 C40.1624477,45.6937584 40.6720787,45.1850087 41.1580349,44.7000089 C42.2533554,43.6086763 42.8688002,42.123677 42.8676038,40.5750111 C42.8689479,39.5624649 42.4685911,38.5910008 41.7548888,37.8750124 L40.0465658,36.1662633 C39.2978491,35.4179906 38.2836308,34.9985159 37.2267739,35.0000139 L28.9082007,35.0000139 C27.7356756,34.4112642 26.2317035,31.000016 24.9208679,31.000016 C23.6097347,31.0000837 22.3166238,30.6936475 21.144116,30.1050165 L19.763502,29.4125168 C19.2321049,29.1376034 18.9150453,28.571553 18.9573356,27.9732578 C18.9996258,27.3749625 19.3931346,26.859458 19.9578845,26.6625182 L23.8417959,25.3637689 C24.5106848,25.1394217 25.2479556,25.2862985 25.7806365,25.7500187 L26.936963,26.7575182 C27.1173999,26.9171642 27.3493046,27.0059585 27.5898888,27.0075181 L28.2926562,27.0075181 C28.6380984,27.0073331 28.9588206,26.827748 29.1403048,26.5328862 C29.321789,26.2380243 29.3381613,25.8699234 29.1835759,25.5600188 L27.2409972,21.6612708 C27.0482927,21.2723688 27.1278427,20.8031493 27.4378717,20.5000214 L28.6739449,19.293772 C28.858396,19.1082574 29.1080603,19.002778 29.3692361,19.0000222 L30.4906734,19.0000222 C30.7551296,19.0002308 31.0088302,18.8950108 31.1959329,18.7075223 L32.1927662,17.7075229 C32.5817458,17.3170518 32.5817458,16.6842446 32.1927662,16.2937736 L31.6083727,15.7075239 C31.2193931,15.3170529 31.2193931,14.6842456 31.6083727,14.2937746 L32.8955336,13.0000253 L33.479927,12.4150256 C33.8539105,12.0399399 34.0640194,11.5311631 34.0640194,11.0006513 C34.0640194,10.4701395 33.8539105,9.96136272 33.479927,9.58627704 L33.479927,9.58627704 L30.4395857,6.53627862 C30.1261007,6.22114925 29.6925107,6.05672707 29.2496161,6.08502885 C28.9343676,6.10627884 28.6203651,6.13252883 28.3051166,6.16627881 C27.5162472,6.24639696 26.9156133,6.91210846 26.9145343,7.70752801 C26.9249399,8.61576048 26.336587,9.42190443 25.4703722,9.68627699 C24.990087,9.82450054 24.4755726,9.77676683 24.0287021,9.55252706 C23.2983793,9.18595039 22.6264717,8.71243608 22.0350357,8.14752779 L16.9785992,3.31753028 C21.2953836,1.12960242 26.0654076,-0.00695160146 30.9018671,0 C43.8395162,0 54.9143332,7.97002788 59.5197027,19.283772 L54.9704051,19.6775218 C53.7784743,19.7807916 52.6167248,20.1090486 51.546283,20.6450213 C51.0808337,20.8785539 50.6840318,21.2296585 50.3949406,21.6637708 L47.9539453,25.3362689 C47.2845845,26.3438058 47.2845845,27.6562303 47.9539453,28.6637672 L50.19682,32.0387655 C50.5188326,32.5249891 50.9752559,32.9064052 51.5101478,33.1362649 L54.067025,34.3987642 L61,38.0512624 Z" filter="url(#benefit-i18n-h)"/>
      <path d="M61,38.0512624 C57.8163639,51.7775053 45.5540693,62 30.9018671,62 C13.8310984,62 0,48.1250072 0,31.000016 C-0.0110931741,23.8448637 2.45538361,16.9079557 6.97787001,11.3750261 L6.97787001,17.0887732 C6.9781786,18.3338111 7.34915431,19.5503849 8.0432355,20.5825214 C9.50359616,22.7562702 11.5795013,25.8412687 12.4878656,27.178768 C13.1317097,28.1302784 13.8872475,29.0006896 14.7382166,29.7712666 L14.8378999,29.8612666 C16.025819,30.9397804 17.3521419,31.8541296 18.7816213,32.5800152 C20.5260794,33.4612647 23.0729883,34.850014 24.8635499,35.8437635 C26.1324073,36.5478145 26.9184202,37.889143 26.9145343,39.3437617 L26.9145343,43.3437596 C26.9143636,44.4046906 27.3343444,45.4222311 28.0820752,46.1725082 C29.9511375,48.0475072 31.1124482,51.0012557 30.9018671,52.5787549 L30.9018671,56.212503 C30.9019333,56.9628743 31.2221052,57.6773448 31.7815186,58.1754639 C32.340932,58.673583 33.0860999,58.9077242 33.8288187,58.8187516 C34.0468759,58.7925017 34.2636872,58.7637517 34.4804984,58.7312517 C35.5261563,58.5711326 36.3715414,57.7927058 36.6199517,56.7612527 L38.3781162,49.5575064 C38.6273246,48.8712568 38.7843258,48.1562571 38.9724781,47.4487575 C39.1094298,46.9418103 39.377189,46.480043 39.7487619,46.1100082 C40.1624477,45.6937584 40.6720787,45.1850087 41.1580349,44.7000089 C42.2533554,43.6086763 42.8688002,42.123677 42.8676038,40.5750111 C42.8689479,39.5624649 42.4685911,38.5910008 41.7548888,37.8750124 L40.0465658,36.1662633 C39.2978491,35.4179906 38.2836308,34.9985159 37.2267739,35.0000139 L28.9082007,35.0000139 C27.7356756,34.4112642 26.2317035,31.000016 24.9208679,31.000016 C23.6097347,31.0000837 22.3166238,30.6936475 21.144116,30.1050165 L19.763502,29.4125168 C19.2321049,29.1376034 18.9150453,28.571553 18.9573356,27.9732578 C18.9996258,27.3749625 19.3931346,26.859458 19.9578845,26.6625182 L23.8417959,25.3637689 C24.5106848,25.1394217 25.2479556,25.2862985 25.7806365,25.7500187 L26.936963,26.7575182 C27.1173999,26.9171642 27.3493046,27.0059585 27.5898888,27.0075181 L28.2926562,27.0075181 C28.6380984,27.0073331 28.9588206,26.827748 29.1403048,26.5328862 C29.321789,26.2380243 29.3381613,25.8699234 29.1835759,25.5600188 L27.2409972,21.6612708 C27.0482927,21.2723688 27.1278427,20.8031493 27.4378717,20.5000214 L28.6739449,19.293772 C28.858396,19.1082574 29.1080603,19.002778 29.3692361,19.0000222 L30.4906734,19.0000222 C30.7551296,19.0002308 31.0088302,18.8950108 31.1959329,18.7075223 L32.1927662,17.7075229 C32.5817458,17.3170518 32.5817458,16.6842446 32.1927662,16.2937736 L31.6083727,15.7075239 C31.2193931,15.3170529 31.2193931,14.6842456 31.6083727,14.2937746 L32.8955336,13.0000253 L33.479927,12.4150256 C33.8539105,12.0399399 34.0640194,11.5311631 34.0640194,11.0006513 C34.0640194,10.4701395 33.8539105,9.96136272 33.479927,9.58627704 L33.479927,9.58627704 L30.4395857,6.53627862 C30.1261007,6.22114925 29.6925107,6.05672707 29.2496161,6.08502885 C28.9343676,6.10627884 28.6203651,6.13252883 28.3051166,6.16627881 C27.5162472,6.24639696 26.9156133,6.91210846 26.9145343,7.70752801 C26.9249399,8.61576048 26.336587,9.42190443 25.4703722,9.68627699 C24.990087,9.82450054 24.4755726,9.77676683 24.0287021,9.55252706 C23.2983793,9.18595039 22.6264717,8.71243608 22.0350357,8.14752779 L16.9785992,3.31753028 C21.2953836,1.12960242 26.0654076,-0.00695160146 30.9018671,0 C43.8395162,0 54.9143332,7.97002788 59.5197027,19.283772 L54.9704051,19.6775218 C53.7784743,19.7807916 52.6167248,20.1090486 51.546283,20.6450213 C51.0808337,20.8785539 50.6840318,21.2296585 50.3949406,21.6637708 L47.9539453,25.3362689 C47.2845845,26.3438058 47.2845845,27.6562303 47.9539453,28.6637672 L50.19682,32.0387655 C50.5188326,32.5249891 50.9752559,32.9064052 51.5101478,33.1362649 L54.067025,34.3987642 L61,38.0512624 Z"/>
    </g>
  </g>
</svg>
